!!!!SEGMENT: pl-kk--kk-i-374--003_anonim--o-maria-stella-maris.krn
!!!cenid: 17xx:1973
!!!COM: Anonim
!!!COM-rismid: pe30004985
!!!CDT:
!!!CNT:
!!!OTL: O Maria stella maris
!!!PDT:
!!!AGN: Sacred
!!!SMS-siglum: PL-Kk
!!!SMS-shelfmark: Kk.I.374
!!!SMS-shelfwork: 003 W
!!!SMS-variant:
!!!SMS-altvar:
!!!NIFC-rismid: 1001143615
!!!URL-scan: http://repozytorium.nifc.pl/skany/pl-kk-nut--i-374
!!!ONB-nifc: UWAGA: utwory w zbiorze: 1. O Maria virgo pia, 2. Salve decus, 3. O Maria stella maris
!!!key:
**kern	**text
*Iempty	*
*I"[Basso]	*
*I'B	*
*clefF4	*
*k[]	*
*d:	*
*M3/2	*
=1	=1
1D	O
2D/	Ma-
=2	=2
1D	ri-
2C#X/	-a
=3	=3
1D	Stel-
2BB-X/	-la
=4	=4
1AA	ma-
2AA/	-ris
=5	=5
1FF#X	ce-
2FF#/	-li
=6	=6
1GG	iu-
2AA/	-bar
=7	=7
1BB-X	et
2C/	aur-
=8	=8
1FF	-o-
2FF/	-ra
=9	=9
1F	a-
*2\right	*
!LO:SIC:custos F:v	!
2E\	-ue
!LO:LB:g=original	!
=10	=10
1F	a-
2A\	-ue
=11	=11
1F	De-
2G\	-o
=12	=12
1C	Ma-
2C/	-ter
=13	=13
1AA	Vir-
2BB/	-go
=14	=14
1C	pul-
2F\	-chra
=15	=15
1D	et
2E\	de-
=16	=16
1AA	-co-
2AA/	-ra
=17	=17
1D	Vir-
2E\	-go
=18	=18
1F	pul-
!LO:SIC:custos G:v	!
2B-X\	-chra
!LO:LB:g=original	!
=19	=19
1G	et
2A\	de-
=20	=20
1D	-co-
2D/	-ra
=21	=21
1D	O
2D/	Ma-
=22	=22
1D	-ri-
2C#X/	-a
=23	=23
1D	Splen-
2BB-X/	-dor
=24	=24
1AA	cae-
2AA/	-li-
=25	=25
[>1FF#X	-co
2FF#/]	.
=26	=26
1GG	vus-
2AA/	-cas
=27	=27
1BB-X	ut
!LO:SIC:custos FF:v	!
2C/	sol
!LO:LB:g=original	!
=28	=28
1FF	lu-
2FF/	-na
=29	=29
1F	a-
2E\	-ue
=30	=30
1F	a-
2A\	-ue
=31	=31
1F	Vir-
2G\	-go
=32	=32
1C	Pa-
2C/	-rens
=33	=33
1AA	ful-
2BB/	-gens
=34	=34
1C	Stel-
2F\	-la
=35	=35
1D	ma-
2E\	-tu-
=36	=36
1AA	-ti-
!LO:SIC:custos D:v	!
2AA/	-na
!LO:LB:g=original	!
=37	=37
1D	ful-
2E\	-gens
=38	=38
1F	Stel-
2B-X\	-la
=39	=39
1G	ma-
2A\	-tu-
=40	=40
1D	-ti-
2D/	-na
=41||	=41||
1D	O
2D/	Ma-
=42	=42
1D	-ri-
2C#X/	-a
=43	=43
1D	Glo-
2BB-X/	-ri-
=44	=44
1AA	-o-
2AA/	-sa
=45	=45
1FF#X	Vir-
!LO:SIC:custos G:v	!
2FF#/	-go
!LO:LB:g=original	!
=46	=46
1GG	dul-
2AA/	-cis
=47	=47
1BB-X	et
2C/	for-
=48	=48
1FF	-mo-
2FF/	-sa
=49	=49
1F	a-
2E\	-ue
=50	=50
1F	a-
2A\	-ue
=51	=51
1F	ru-
2G\	-bus
=52	=52
1C	ar-
2C/	-dens
=53	=53
1AA	Pa-
2BB/	-ra-
=54	=54
1C	-di-
!LO:SIC:custos D:v	!
2F\	-si
!LO:LB:g=original	!
=55	=55
1D	flos
2E\	et
=56	=56
1AA	ro-
2AA/	-sa
=57	=57
1D	Pa-
2E\	-ra-
=58	=58
1F	-dy-
2B-X\	-si
=59	=59
1G	flos
2A\	et
=60	=60
1D	ro-
2D/	-sa
=61||	=61||
1D	O
2D/	Ma-
=62	=62
1D	-ri-
2C#X/	-a
=63	=63
1D	tu
!LO:SIC:custos AA:v	!
2BB-X/	es
!LO:LB:g=original	!
=64	=64
1AA	il-
2AA/	-la
=65	=65
1FF#X	Sa-
2FF#/	-lo-
=66	=66
1GG	-mo-
2AA/	-nis
=67	=67
!LO:TX:b:t=P:problem:niezrozumiałe słowo	!
1BB-X	ci-
2C/	-nes-
=68	=68
1FF	-u-
2FF/	-ra
=69	=69
1F	per
2E\	quam
=70	=70
1F	du-
2A\	-ces
=71	=71
1F	at-
2G\	q(ue)
=72	=72
1C	Re-
!LO:SIC:custos AA:v	!
2C/	-ges
!LO:LB:g=original	!
=73	=73
1AA	reg-
2BB/	-nant
=74	=74
1C	et
2F\	dant
=75	=75
1D	iuſ-
2E\	-ta
=76	=76
1AA	Ju-
2AA/	-ra
=77	=77
1D	reg-
2E\	-nant
=78	=78
1F	et
2B-X\	dant
=79	=79
1G	iuſ-
2A\	-ta
=80	=80
1D	iu-
2D/	-ra
==	==
*-	*-
!!!RDF**kern: > = above
!!!AIN: 1 empty
!!!ENC: Marcin Jachim
!!!END: 2021-02-08
